public/images/ruby_conf_logo.svg

<?xml version="1.0" encoding="utf-8"?>
<!-- Generator: Adobe Illustrator 16.0.0, SVG Export Plug-In . SVG Version: 6.00 Build 0)  -->
<!DOCTYPE svg PUBLIC "-//W3C//DTD SVG 1.1//EN" "http://www.w3.org/Graphics/SVG/1.1/DTD/svg11.dtd">
<svg version="1.1" id="Layer_1" xmlns="http://www.w3.org/2000/svg" xmlns:xlink="http://www.w3.org/1999/xlink" x="0px" y="0px"
	 width="173.414px" height="173.415px" viewBox="0 0 173.414 173.415" enable-background="new 0 0 173.414 173.415"
	 xml:space="preserve">
<g>
	<path fill="#EF3B36" d="M105.321,90.566v-0.42c0-3.149-2.561-5.879-5.627-5.879h-5.711v11.926h5.711
		C102.845,96.193,105.321,93.716,105.321,90.566z"/>
	<path fill="#EF3B36" d="M104.944,76.583v-0.168c0-3.191-2.184-5.375-5.25-5.375h-5.711v11.128h5.711
		C102.718,82.168,104.944,79.774,104.944,76.583z"/>
	<path fill="#EF3B36" d="M51.958,71.292h-6.299v11.674h6.299c3.148,0,5.627-2.394,5.627-5.627v-0.42
		C57.585,73.77,55.106,71.292,51.958,71.292z"/>
	<path fill="#EF3B36" d="M74.544,109.917h-0.42c-3.149,0-5.627,2.479-5.627,5.627v14.152c0,3.148,2.478,5.627,5.627,5.627h0.42
		c3.149,0,5.627-2.479,5.627-5.627v-14.152C80.171,112.395,77.693,109.917,74.544,109.917z"/>
	<path fill="#EF3B36" d="M97.798,42.487c1.218-5.192,2.989-10.604,2.376-10.604c-1.096,0-4.776,4.529-7.947,10.094
		c-0.192,0.338-0.379,0.68-0.562,1.023l0.035-0.006c1.32-0.21,4.319-0.45,5.64-0.5L97.798,42.487z"/>
	<path fill="#EF3B36" d="M86.707,0C38.82,0,0,38.82,0,86.708c0,47.887,38.82,86.707,86.707,86.707
		c47.888,0,86.707-38.82,86.707-86.707C173.414,38.82,134.595,0,86.707,0z M58.614,29.189c0.48,0,4.041,0.055,7.99,0.115
		c-0.432,0.456-0.868,0.909-1.301,1.363c-0.623,0.641-1.25,1.275-1.882,1.905l-1.902,1.885l-0.766,0.745l-2.521-5.833
		C58.388,29.256,58.519,29.189,58.614,29.189z M67.567,29.892l6.874,6.877l-13.157,0.374c0.027-0.031,0.051-0.062,0.078-0.093
		l0.43-0.514l0.859-1.027l1.737-2.036c0.583-0.676,1.172-1.348,1.763-2.017C66.624,30.934,67.091,30.41,67.567,29.892z
		 M59.137,114.579c0,0.629-0.462,1.049-1.008,1.049c-0.504,0-0.924-0.377-1.05-0.881c-0.336-2.688-2.688-4.83-5.543-4.83h-0.42
		c-3.149,0-5.669,2.479-5.669,5.627v14.152c0,3.148,2.52,5.627,5.669,5.627h0.42c2.855,0,5.207-2.143,5.543-4.83
		c0.126-0.504,0.546-0.881,1.05-0.881c0.546,0,1.008,0.42,1.008,1.049v0.127c-0.462,3.779-3.695,6.551-7.601,6.551h-0.42
		c-4.241,0-7.727-3.359-7.727-7.643v-14.152c0-4.283,3.485-7.684,7.727-7.684h0.42c3.905,0,7.139,2.855,7.601,6.592V114.579z
		 M59.642,77.339c0,3.821-2.604,6.929-6.256,7.601l5.752,12.052c0.084,0.168,0.127,0.336,0.127,0.504
		c0,0.63-0.547,0.966-1.092,0.966c-0.379,0-0.715-0.168-0.883-0.546l-6.131-12.892h-5.5v12.43c0,0.714-0.504,1.008-1.051,1.008
		c-0.504,0-1.008-0.294-1.008-1.008V70.284c0-0.546,0.463-1.05,1.008-1.05h7.35c4.24,0,7.684,3.443,7.684,7.685V77.339z
		 M52.067,38.111c-0.076-0.458,3.207-5.526,5.216-7.81l1.873,6.901l-4.62,0.129c-0.188,0.006-0.34,0.156-0.341,0.345
		c-0.006,0.192,0.146,0.354,0.342,0.36l4.899,0.123c0.023,0.045,0.051,0.091,0.082,0.129c0.092,0.652,0.33,1.239,0.602,1.808
		l0.929,1.982c0.612,1.318,1.25,2.632,1.875,3.948c0.638,1.311,1.274,2.623,1.925,3.929c0.428,0.84,0.85,1.679,1.281,2.519
		C62.393,49.451,52.153,38.622,52.067,38.111z M64.753,45.208c-0.565-1.344-1.119-2.694-1.697-4.03l-0.862-2.011
		c-0.134-0.324-0.282-0.645-0.458-0.951l12.526,0.313l-6.772,13.517c-0.359-0.928-0.723-1.855-1.088-2.784
		C65.863,47.906,65.308,46.556,64.753,45.208z M82.229,129.696c0,4.283-3.443,7.643-7.685,7.643h-0.42
		c-4.241,0-7.685-3.359-7.685-7.643v-14.152c0-4.283,3.443-7.684,7.685-7.684h0.42c4.241,0,7.685,3.4,7.685,7.684V129.696z
		 M82.272,90.818c0,4.283-3.443,7.643-7.686,7.643h-0.42c-4.24,0-7.684-3.359-7.684-7.643V70.032c0-0.714,0.504-1.05,1.049-1.05
		c0.504,0,1.008,0.336,1.008,1.05v20.786c0,3.149,2.479,5.627,5.627,5.627h0.42c3.15,0,5.627-2.478,5.627-5.627V70.032
		c0-0.714,0.504-1.05,1.008-1.05c0.547,0,1.051,0.336,1.051,1.05V90.818z M68.675,52.486l6.971-13.921l7.42,0.186
		C81.945,40.547,72.337,49.752,68.675,52.486z M76.035,36.725l1.665-5.1c0.041-0.13-0.021-0.274-0.146-0.333
		c-0.141-0.058-0.299,0.005-0.359,0.141L75.21,35.99l-6.655-6.652c4.562,0.066,9.062,0.138,9.525,0.138
		c0.694,0,3.829,4.374,5.061,7.067L76.035,36.725z M90.761,44.768c-1.352,2.768-2.266,5.167-2.266,5.167
		c-0.216,0.505-0.645,0.684-1.058,0.684c-0.261,0-0.73-0.156-0.73-0.807c0-0.786,0.595-2.514,1.57-4.666
		c-0.417,0.079-0.834,0.162-1.242,0.267c-0.339,0.09-0.685-0.111-0.771-0.451c-0.087-0.321,0.106-0.754,0.417-0.863
		c0.779-0.262,1.604-0.461,2.4-0.646c3.204-6.475,8.943-15.227,12.703-15.227c1.689,0,1.527,1.467,1.57,1.705
		c0,1.944-2.205,8.05-3.059,12.517c0.133-0.003,0.266-0.008,0.403-0.006c0.755,0.018,1.15,0.541,1.138,1.186
		c-0.008,0.64-0.518,1.188-1.295,1.132c-0.285-0.02-0.457-0.03-0.6-0.038c-0.233,1.667-0.351,2.686-0.258,4.986
		c0.027,0.689-0.479,1.538-1.367,1.538c-0.86,0-1.568-0.569-1.568-2.026c0-1.274,0.239-2.905,0.592-4.652l-0.353-0.021
		c-1.15-0.035-2.094-0.03-3.237,0.011c-1.037,0.036-1.903,0.089-2.934,0.202L90.761,44.768z M91.927,70.032
		c0-0.546,0.461-1.05,1.008-1.05h6.76c4.242,0,7.307,3.191,7.307,7.433v0.168c0,2.855-1.344,5.333-3.527,6.677
		c2.352,1.386,3.906,4.031,3.906,6.887v0.42c0,4.241-3.443,7.685-7.686,7.685h-6.76c-0.547,0-1.008-0.504-1.008-1.05V70.032z
		 M107.797,136.288c0,0.672-0.462,1.051-1.008,1.051h-0.756c-0.294,0-0.84-0.168-1.05-0.672l-10.876-24.691v24.355
		c0,0.713-0.546,1.008-1.05,1.008s-1.05-0.295-1.05-1.008v-27.422c0-0.545,0.504-1.049,1.05-1.049h0.756
		c0.294,0,0.714,0.209,0.924,0.672l10.96,24.732v-24.355c0-0.713,0.546-1.049,1.05-1.049s1.05,0.336,1.05,1.049V136.288z
		 M107.269,50.676c-2.934,0-3.889-2.362-3.889-5.024c0-4.895,3.148-12.03,4.579-15.655c0.367-0.927,1.136-1.324,1.853-1.324
		c1.498,0,1.568,1.563,1.273,2.245c0,0-8.864,17.836-3.91,17.836c5.722,0,10.525-19.059,10.525-19.059
		c0.153-0.588,0.706-1.088,1.418-1.088c1.237,0,1.577,1.082,1.36,1.76C119.29,34.08,115.039,50.676,107.269,50.676z M114.808,69.99
		c0-0.63,0.545-1.008,1.092-1.008c0.461,0,0.756,0.21,0.924,0.63l6.047,14.529l6.047-14.529c0.168-0.42,0.461-0.63,0.924-0.63
		c0.545,0,1.092,0.378,1.092,1.008c0,0.126-0.043,0.252-0.084,0.42l-6.93,16.629v10.414c0,0.714-0.545,1.008-1.049,1.008
		s-1.051-0.294-1.051-1.008V87.039l-6.928-16.629C114.849,70.326,114.808,70.2,114.808,69.99z M131.351,110.168h-12.682v10.877
		h8.986c0.714,0,1.05,0.504,1.05,1.049c0,0.547-0.336,1.051-1.05,1.051h-8.986v13.186c0,0.713-0.504,1.008-1.008,1.008
		s-1.05-0.295-1.05-1.008v-27.17c0-0.545,0.42-1.049,1.05-1.049h13.689c0.714,0,1.05,0.504,1.05,1.008
		S132.064,110.168,131.351,110.168z"/>
</g>
</svg>

<?xml version="1.0" encoding="UTF-8" standalone="no"?>
<svg width="174px" height="174px" viewBox="0 0 174 174" version="1.1" xmlns="http://www.w3.org/2000/svg" xmlns:xlink="http://www.w3.org/1999/xlink" xmlns:sketch="http://www.bohemiancoding.com/sketch/ns">
    <title>Slice 1</title>
    <description>Created with Sketch (http://www.bohemiancoding.com/sketch)</description>
    <defs></defs>
    <g id="Page-1" stroke="none" stroke-width="1" fill="none" fill-rule="evenodd" sketch:type="MSPage">
        <g id="ruby_conf_logo" sketch:type="MSLayerGroup">
            <g id="Group" sketch:type="MSShapeGroup">
                <path d="M105.321,90.566 L105.321,90.146 C105.321,86.997 102.76,84.267 99.694,84.267 L93.983,84.267 L93.983,96.193 L99.694,96.193 C102.845,96.193 105.321,93.716 105.321,90.566 L105.321,90.566 Z" id="Shape" fill="#FF0000"></path>
                <path d="M104.944,76.583 L104.944,76.415 C104.944,73.224 102.76,71.04 99.694,71.04 L93.983,71.04 L93.983,82.168 L99.694,82.168 C102.718,82.168 104.944,79.774 104.944,76.583 L104.944,76.583 Z" id="Shape" fill="#FF0000"></path>
                <path d="M51.958,71.292 L45.659,71.292 L45.659,82.966 L51.958,82.966 C55.106,82.966 57.585,80.572 57.585,77.339 L57.585,76.919 C57.585,73.77 55.106,71.292 51.958,71.292 L51.958,71.292 Z" id="Shape" fill="#FF0000"></path>
                <path d="M74.544,109.917 L74.124,109.917 C70.975,109.917 68.497,112.396 68.497,115.544 L68.497,129.696 C68.497,132.844 70.975,135.323 74.124,135.323 L74.544,135.323 C77.693,135.323 80.171,132.844 80.171,129.696 L80.171,115.544 C80.171,112.395 77.693,109.917 74.544,109.917 L74.544,109.917 Z" id="Shape" fill="#FF0000"></path>
                <path d="M97.798,42.487 C99.016,37.295 100.787,31.883 100.174,31.883 C99.078,31.883 95.398,36.412 92.227,41.977 C92.035,42.315 91.848,42.657 91.665,43 L91.7,42.994 C93.02,42.784 96.019,42.544 97.34,42.494 L97.798,42.487 L97.798,42.487 Z" id="Shape" fill="#FF0000"></path>
                <path d="M86.707,0 C38.82,0 0,38.82 0,86.708 C0,134.595 38.82,173.415 86.707,173.415 C134.595,173.415 173.414,134.595 173.414,86.708 C173.414,38.82 134.595,0 86.707,0 L86.707,0 Z M58.614,29.189 C59.094,29.189 62.655,29.244 66.604,29.304 C66.172,29.76 65.736,30.213 65.303,30.667 C64.68,31.308 64.053,31.942 63.421,32.572 L61.519,34.457 L60.753,35.202 L58.232,29.369 C58.388,29.256 58.519,29.189 58.614,29.189 L58.614,29.189 Z M67.567,29.892 L74.441,36.769 L61.284,37.143 C61.311,37.112 61.335,37.081 61.362,37.05 L61.792,36.536 L62.651,35.509 L64.388,33.473 C64.971,32.797 65.56,32.125 66.151,31.456 C66.624,30.934 67.091,30.41 67.567,29.892 L67.567,29.892 Z M59.137,114.579 C59.137,115.208 58.675,115.628 58.129,115.628 C57.625,115.628 57.205,115.251 57.079,114.747 C56.743,112.059 54.391,109.917 51.536,109.917 L51.116,109.917 C47.967,109.917 45.447,112.396 45.447,115.544 L45.447,129.696 C45.447,132.844 47.967,135.323 51.116,135.323 L51.536,135.323 C54.391,135.323 56.743,133.18 57.079,130.493 C57.205,129.989 57.625,129.612 58.129,129.612 C58.675,129.612 59.137,130.032 59.137,130.661 L59.137,130.788 C58.675,134.567 55.442,137.339 51.536,137.339 L51.116,137.339 C46.875,137.339 43.389,133.98 43.389,129.696 L43.389,115.544 C43.389,111.261 46.874,107.86 51.116,107.86 L51.536,107.86 C55.441,107.86 58.675,110.715 59.137,114.452 L59.137,114.579 L59.137,114.579 Z M59.642,77.339 C59.642,81.16 57.038,84.268 53.386,84.94 L59.138,96.992 C59.222,97.16 59.265,97.328 59.265,97.496 C59.265,98.126 58.718,98.462 58.173,98.462 C57.794,98.462 57.458,98.294 57.29,97.916 L51.159,85.024 L45.659,85.024 L45.659,97.454 C45.659,98.168 45.155,98.462 44.608,98.462 C44.104,98.462 43.6,98.168 43.6,97.454 L43.6,70.284 C43.6,69.738 44.063,69.234 44.608,69.234 L51.958,69.234 C56.198,69.234 59.642,72.677 59.642,76.919 L59.642,77.339 L59.642,77.339 Z M52.067,38.111 C51.991,37.653 55.274,32.585 57.283,30.301 L59.156,37.202 L54.536,37.331 C54.348,37.337 54.196,37.487 54.195,37.676 C54.189,37.868 54.341,38.03 54.537,38.036 L59.436,38.159 C59.459,38.204 59.487,38.25 59.518,38.288 C59.61,38.94 59.848,39.527 60.12,40.096 L61.049,42.078 C61.661,43.396 62.299,44.71 62.924,46.026 C63.562,47.337 64.198,48.649 64.849,49.955 C65.277,50.795 65.699,51.634 66.13,52.474 C62.393,49.451 52.153,38.622 52.067,38.111 L52.067,38.111 Z M64.753,45.208 C64.188,43.864 63.634,42.514 63.056,41.178 L62.194,39.167 C62.06,38.843 61.912,38.522 61.736,38.216 L74.262,38.529 L67.49,52.046 C67.131,51.118 66.767,50.191 66.402,49.262 C65.863,47.906 65.308,46.556 64.753,45.208 L64.753,45.208 Z M82.229,129.696 C82.229,133.979 78.786,137.339 74.544,137.339 L74.124,137.339 C69.883,137.339 66.439,133.98 66.439,129.696 L66.439,115.544 C66.439,111.261 69.882,107.86 74.124,107.86 L74.544,107.86 C78.785,107.86 82.229,111.26 82.229,115.544 L82.229,129.696 L82.229,129.696 Z M82.272,90.818 C82.272,95.101 78.829,98.461 74.586,98.461 L74.166,98.461 C69.926,98.461 66.482,95.102 66.482,90.818 L66.482,70.032 C66.482,69.318 66.986,68.982 67.531,68.982 C68.035,68.982 68.539,69.318 68.539,70.032 L68.539,90.818 C68.539,93.967 71.018,96.445 74.166,96.445 L74.586,96.445 C77.736,96.445 80.213,93.967 80.213,90.818 L80.213,70.032 C80.213,69.318 80.717,68.982 81.221,68.982 C81.768,68.982 82.272,69.318 82.272,70.032 L82.272,90.818 L82.272,90.818 Z M68.675,52.486 L75.646,38.565 L83.066,38.751 C81.945,40.547 72.337,49.752 68.675,52.486 L68.675,52.486 Z M76.035,36.725 L77.7,31.625 C77.741,31.495 77.679,31.351 77.554,31.292 C77.413,31.234 77.255,31.297 77.195,31.433 L75.21,35.99 L68.555,29.338 C73.117,29.404 77.617,29.476 78.08,29.476 C78.774,29.476 81.909,33.85 83.141,36.543 L76.035,36.725 L76.035,36.725 Z M90.761,44.768 C89.409,47.536 88.495,49.935 88.495,49.935 C88.279,50.44 87.85,50.619 87.437,50.619 C87.176,50.619 86.707,50.463 86.707,49.812 C86.707,49.026 87.302,47.298 88.277,45.146 C87.86,45.225 87.443,45.308 87.035,45.413 C86.696,45.503 86.35,45.302 86.264,44.962 C86.177,44.641 86.37,44.208 86.681,44.099 C87.46,43.837 88.285,43.638 89.081,43.453 C92.285,36.978 98.024,28.226 101.784,28.226 C103.473,28.226 103.311,29.693 103.354,29.931 C103.354,31.875 101.149,37.981 100.295,42.448 C100.428,42.445 100.561,42.44 100.698,42.442 C101.453,42.46 101.848,42.983 101.836,43.628 C101.828,44.268 101.318,44.816 100.541,44.76 C100.256,44.74 100.084,44.73 99.941,44.722 C99.708,46.389 99.59,47.408 99.683,49.708 C99.71,50.397 99.204,51.246 98.316,51.246 C97.456,51.246 96.748,50.677 96.748,49.22 C96.748,47.946 96.987,46.315 97.34,44.568 L96.987,44.547 C95.837,44.512 94.893,44.517 93.75,44.558 C92.713,44.594 91.847,44.647 90.816,44.76 L90.761,44.768 L90.761,44.768 Z M92.935,68.982 L99.695,68.982 C103.937,68.982 107.002,72.173 107.002,76.415 L107.002,76.583 C107.002,79.438 105.658,81.916 103.475,83.26 C105.827,84.646 107.381,87.291 107.381,90.147 L107.381,90.567 C107.381,94.808 103.938,98.252 99.695,98.252 L92.935,98.252 C92.388,98.252 91.927,97.748 91.927,97.202 L91.927,70.032 C91.927,69.486 92.388,68.982 92.935,68.982 Z M107.797,136.288 C107.797,136.96 107.335,137.339 106.789,137.339 L106.033,137.339 C105.739,137.339 105.193,137.171 104.983,136.667 L94.107,111.976 L94.107,136.331 C94.107,137.044 93.561,137.339 93.057,137.339 C92.553,137.339 92.007,137.044 92.007,136.331 L92.007,108.909 C92.007,108.364 92.511,107.86 93.057,107.86 L93.813,107.86 C94.107,107.86 94.527,108.069 94.737,108.532 L105.697,133.264 L105.697,108.909 C105.697,108.196 106.243,107.86 106.747,107.86 C107.251,107.86 107.797,108.196 107.797,108.909 L107.797,136.288 L107.797,136.288 Z M107.269,50.676 C104.335,50.676 103.38,48.314 103.38,45.652 C103.38,40.757 106.528,33.622 107.959,29.997 C108.326,29.07 109.095,28.673 109.812,28.673 C111.31,28.673 111.38,30.236 111.085,30.918 C111.085,30.918 102.221,48.754 107.175,48.754 C112.897,48.754 117.7,29.695 117.7,29.695 C117.853,29.107 118.406,28.607 119.118,28.607 C120.355,28.607 120.695,29.689 120.478,30.367 C119.29,34.08 115.039,50.676 107.269,50.676 L107.269,50.676 Z M114.808,69.99 C114.808,69.36 115.353,68.982 115.9,68.982 C116.361,68.982 116.656,69.192 116.824,69.612 L122.871,84.141 L128.918,69.612 C129.086,69.192 129.379,68.982 129.842,68.982 C130.387,68.982 130.934,69.36 130.934,69.99 C130.934,70.116 130.891,70.242 130.85,70.41 L123.92,87.039 L123.92,97.453 C123.92,98.167 123.375,98.461 122.871,98.461 C122.367,98.461 121.82,98.167 121.82,97.453 L121.82,87.039 L114.892,70.41 C114.849,70.326 114.808,70.2 114.808,69.99 L114.808,69.99 Z M131.351,110.168 L118.669,110.168 L118.669,121.045 L127.655,121.045 C128.369,121.045 128.705,121.549 128.705,122.094 C128.705,122.641 128.369,123.145 127.655,123.145 L118.669,123.145 L118.669,136.331 C118.669,137.044 118.165,137.339 117.661,137.339 C117.157,137.339 116.611,137.044 116.611,136.331 L116.611,109.161 C116.611,108.616 117.031,108.112 117.661,108.112 L131.35,108.112 C132.064,108.112 132.4,108.616 132.4,109.12 C132.4,109.624 132.064,110.168 131.351,110.168 L131.351,110.168 Z" id="Shape" fill="#FD0000"></path>
            </g>
        </g>
    </g>
</svg>
